X:1
T:Tristitia vestra
T:Joachim Kelecom (°1977)
T:Text: Jo. 16, 20.22
T:Dedicated to the memory of the victims of the London terror attack, May 3rd 2017
T:Antiphon for the Divine Office of the Departed, paschal time
T:Tristitia vestra
C:Joachim Kelecom (°1977)
Z:Text: Jo. 16, 20.22
%%score [ 1 2 3 ]
L:1/8
Q:1/4=100
M:none
K:C
V:1 treble nm="MusicXML Part"
V:2 treble nm="Soprano" snm="S"
V:3 treble nm="Alto" snm="A"
V:1
 !stemless!G2 !stemless!A2 !stemless!G2 !stemless!F2 (!stemless!G2 !stemless!A4) !stemless!G4 | %1
w: Tri- sti- ti- a ve- * stra|
[M:2/2] z4!p! e4 | e8 | (f4 e4) | (f4 e4) | (e4 d4) | (c4 B4) | c4 z4 | z4 g4 | (g2 f2) e2 d2 | %10
w: ver-|te-|tur _|in _|gau- *|di- *|um,|et|gau- * di- um|
 (c2 B4 c2) | B4 z4 | z2 A4 d2- | d2 e2 f4 | g4 (f4 | e4) !fermata!g4 || g4 f4 | e4 d4 | (c4 B4) | %19
w: ve- * *|strum|ne- mo|_ tol- let|a vo-|* bis.|Al- le-|lu- ia,|al- *|
 c4 d4 | !fermata!d8!fine! || %21
w: le- lu-|ia.|
 !stemless!G2 !stemless!A2 !stemless!c2 !stemless!c2 !stemless!c2 !stemless!c2 !stemless!c2 !stemless!c2 !stemless!c2 !stemless!d4 !stemless!c4 | %22
w: Lau- da- te Do- mi- num in san- ctis e- ius;|
 !stemless!c2 !stemless!c2 !stemless!c2 !stemless!c2 !stemless!c2 !stemless!c2 !stemless!c2 !stemless!c2 !stemless!c2 !stemless!c2 !stemless!c2 !stemless!B2 !stemless!c2 !stemless!A4 !stemless!G4!D.C.! |] %23
w: lau- da- te e- um in fir- ma- men- to vir- tu- tis e- ius.|
V:2
 z18 |[M:2/2]!p! A8 | c8 | (c4 B4) | (A4 G4) | (A4 B4) | (A4 G4) | G4 A4 | c4 (c4 | B4) (A4 | %10
w: |ver-|te-|tur _|in _|gau- *|di- *|um, et|gau- di-|* um|
 G4) A4 | G4 z4 | z2 F4 _B2- | B2 c2 d4 | d4 (_B4 | d4) !fermata!d4 || e4 d4 | c4 B4 | (A4 G4) | %19
w: _ ve-|strum|ne- mo|_ tol- let|a vo-|* bis.|Al- le-|lu- ia,|al- *|
 A4 A4 | !fermata!B8 || %21
w: le- lu-|ia.|
 !stemless!G2 !stemless!G2 !stemless!G2 !stemless!A2 !stemless!A2 !stemless!A2 !stemless!A2 !stemless!_B2 !stemless!B2 !stemless!c4 !stemless!B4 | %22
w: Lau- da- te Do- mi- num in san- ctis e- ius;|
 !stemless!c2 !stemless!c2 !stemless!c2 !stemless!_B2 !stemless!B2 !stemless!B2 !stemless!A2 !stemless!A2 !stemless!G2 !stemless!G2 !stemless!G2 !stemless!G2 !stemless!G2 !stemless!F4 !stemless!G4 |] %23
w: lau- da- te e- um in fir- ma- men- to vir- tu- tis e- ius.|
V:3
 z18 |[M:2/2] z8!p! | (A3 B c2 B2) | A4 G4 | (F4 C4) | (C4 D4) | (E2 F4 D2) | E4 z4 | z2 E2 (A4 | %9
w: ||ver- * * *|te- tur|in _|gau- *|di- * *|um,|et gau-|
 G2) A2 (F2 E2) | (D4 E4) | E4 E4 | F4 G4 | F4 F4 | (E4 D4 | C4) !fermata!C4 || C4 D4 | E4 F4 | %18
w: * di- um _|ve- *|strum ne-|mo tol-|let a|vo- *|* bis.|Al- le-|lu- ia,|
 (G4 A4) | A4 G4 | !fermata!G8 || %21
w: al- *|le- lu-|ia.|
 !stemless!E2 !stemless!E2 !stemless!E2 !stemless!F2 !stemless!F2 !stemless!F2 !stemless!F2 !stemless!G2 !stemless!G2 !stemless!A4 !stemless!G4 | %22
w: Lau- da- te Do- mi- num in san- ctis e- ius;|
 !stemless!G2 !stemless!G2 !stemless!G2 !stemless!F2 !stemless!F2 !stemless!F2 !stemless!E2 !stemless!E2 !stemless!D2 !stemless!D2 !stemless!D2 !stemless!D2 !stemless!D2 !stemless!C4 !stemless!D4 |] %23
w: lau- da- te e- um in fir- ma- men- to vir- tu- tis e- ius.|

